X: 2
T: Hawthorn Bush, The
M: 9/8
L: 1/8
R: slip jig
K: Dmaj
|: d | 
AFF FEF DFF | AFD EFA B2 d |
AFF F2 E DEF | FED EFA B2 :|
|: c | 
d2 d dcB AFD | dcd dcB B2 c |
d2 d dcB Bcd | ADD DE/F/A B2 :|
